X: 1970
T: The Weaver and His Wife
C:Andrew Rankine, published 1991
B: australian traditional tunes wiki
M:6/8
L:1/8
R: Jig
Q: 3/8=100
K:A
V:1 
|:G/F/|"A"E2E EAB | c3 A3 |c3 A2c | edc "Bm"B3 |"E7"E2E EBc | d3 B3 |E2e dcB|1 "A"c3- c2:|2 "A"A3 -A2||
|:G/F/|"A"EAc e3|EAe c3 |EAc edc|"Bm"d3 -d2B/c/|"E7"ded BdB|G3F3|E2e dcB|1"A"c3 -c2:|2 "A"A3 -A2 ||
% abcbook-tune_id 6342d5beffc25aafb581fc9a


% abcbook-boost 0
% abcbook-tablature 
% abcbook-transpose 
% abcbook-lastupdated 1665324491410
% abcbook-soundfonts 
% abcbook-repeats 1
% NFF Book 2017

